www/assets/icons/visibility_off_outline.svg

<svg width="24" height="24" viewBox="0 0 24 24" xmlns="http://www.w3.org/2000/svg" fill='currentColor'><path d="M12 5.9748C15.79 5.9748 19.17 8.1048 20.82 11.4748C20.23 12.6948 19.4 13.7448 18.41 14.5948L19.82 16.0048C21.21 14.7748 22.31 13.2348 23 11.4748C21.27 7.08481 17 3.9748 12 3.9748C10.73 3.9748 9.51 4.1748 8.36 4.5448L10.01 6.1948C10.66 6.0648 11.32 5.9748 12 5.9748ZM10.93 7.1148L13 9.1848C13.57 9.4348 14.03 9.8948 14.28 10.4648L16.35 12.5348C16.43 12.1948 16.49 11.8348 16.49 11.4648C16.5 8.9848 14.48 6.9748 12 6.9748C11.63 6.9748 11.28 7.0248 10.93 7.1148ZM2.01 3.8448L4.69 6.52481C3.06 7.8048 1.77 9.5048 1 11.4748C2.73 15.8648 7 18.9748 12 18.9748C13.52 18.9748 14.98 18.6848 16.32 18.1548L19.74 21.5748L21.15 20.1648L3.42 2.4248L2.01 3.8448ZM9.51 11.3448L12.12 13.9548C12.08 13.9648 12.04 13.9748 12 13.9748C10.62 13.9748 9.5 12.8548 9.5 11.4748C9.5 11.4248 9.51 11.3948 9.51 11.3448ZM6.11 7.9448L7.86 9.69481C7.63 10.2448 7.5 10.8448 7.5 11.4748C7.5 13.9548 9.52 15.9748 12 15.9748C12.63 15.9748 13.23 15.8448 13.77 15.6148L14.75 16.5948C13.87 16.8348 12.95 16.9748 12 16.9748C8.21 16.9748 4.83 14.8448 3.18 11.4748C3.88 10.0448 4.9 8.8648 6.11 7.9448Z"/></svg>

<svg xmlns="http://www.w3.org/2000/svg" width="24" height="24" viewBox="0 0 24 24" fill='currentColor'><path d="M12 5.975a9.77 9.77 0 0 1 8.82 5.5 9.65 9.65 0 0 1-2.41 3.12l1.41 1.41c1.39-1.23 2.49-2.77 3.18-4.53-1.73-4.39-6-7.5-11-7.5-1.27 0-2.49.2-3.64.57l1.65 1.65c.65-.13 1.31-.22 1.99-.22m-1.07 1.14L13 9.185c.57.25 1.03.71 1.28 1.28l2.07 2.07c.08-.34.14-.7.14-1.07.01-2.48-2.01-4.49-4.49-4.49-.37 0-.72.05-1.07.14m-8.92-3.27 2.68 2.68A11.74 11.74 0 0 0 1 11.475c1.73 4.39 6 7.5 11 7.5 1.52 0 2.98-.29 4.32-.82l3.42 3.42 1.41-1.41L3.42 2.425zm7.5 7.5 2.61 2.61c-.04.01-.08.02-.12.02a2.5 2.5 0 0 1-2.5-2.5c0-.05.01-.08.01-.13m-3.4-3.4 1.75 1.75a4.6 4.6 0 0 0-.36 1.78 4.507 4.507 0 0 0 6.27 4.14l.98.98c-.88.24-1.8.38-2.75.38a9.77 9.77 0 0 1-8.82-5.5c.7-1.43 1.72-2.61 2.93-3.53"/></svg>
